X: 1227
T: Ask Old Brown To Tea
B: australian traditional tunes wiki
M:2/4
L:1/8
R: Polka
Q: 1/4=100
K:C
V:1 
G|:"C"GE c>E|G3A|GE c>G|"G7"B4|Bd "F"A>c|"G7"Bd "F"A>c|"G7"Bd AB|1 "C"G3A:|2 "C"c3||
d|:"G"dB g>B|d3e|dB g>d|"D7"f4|fa "C"e>g|"D7"fa "C"e>g|"D7"fa ef|1 "G"d3e:|2 "G"g3||
% abcbook-tune_id 6342d53aef1d1c0eabbb0893


% abcbook-boost 0
% abcbook-tablature 
% abcbook-transpose 
% abcbook-lastupdated 1665324354960
% abcbook-soundfonts 
% abcbook-repeats 1
% NFF Book 2016

